icons/Suru/scalable/apps/accessories-character-map-symbolic.svg

<?xml version="1.0" encoding="UTF-8" standalone="no"?>
<svg
   xmlns:dc="http://purl.org/dc/elements/1.1/"
   xmlns:cc="http://creativecommons.org/ns#"
   xmlns:rdf="http://www.w3.org/1999/02/22-rdf-syntax-ns#"
   xmlns:svg="http://www.w3.org/2000/svg"
   xmlns="http://www.w3.org/2000/svg"
   xmlns:sodipodi="http://sodipodi.sourceforge.net/DTD/sodipodi-0.dtd"
   xmlns:inkscape="http://www.inkscape.org/namespaces/inkscape"
   height="16"
   width="16"
   version="1.1"
   id="svg8"
   sodipodi:docname="accessories-character-map-symbolic.svg"
   inkscape:version="1.0.1 (3bc2e813f5, 2020-09-07)">
  <metadata
     id="metadata14">
    <rdf:RDF>
      <cc:Work
         rdf:about="">
        <dc:format>image/svg+xml</dc:format>
        <dc:type
           rdf:resource="http://purl.org/dc/dcmitype/StillImage" />
        <dc:title></dc:title>
      </cc:Work>
    </rdf:RDF>
  </metadata>
  <defs
     id="defs12" />
  <sodipodi:namedview
     pagecolor="#ffffff"
     bordercolor="#666666"
     borderopacity="1"
     objecttolerance="10"
     gridtolerance="10"
     guidetolerance="10"
     inkscape:pageopacity="0"
     inkscape:pageshadow="2"
     inkscape:window-width="1294"
     inkscape:window-height="704"
     id="namedview10"
     showgrid="false"
     inkscape:zoom="0.9921875"
     inkscape:cx="6.8584385"
     inkscape:cy="11.656455"
     inkscape:window-x="72"
     inkscape:window-y="27"
     inkscape:window-maximized="1"
     inkscape:current-layer="svg8"
     showborder="true"
     inkscape:document-rotation="0">
    <inkscape:grid
       type="xygrid"
       id="grid839" />
  </sodipodi:namedview>
  <g
     fill="gray"
     id="g6">
    <path
       id="path2"
       style="line-height:normal;font-variant-ligatures:normal;font-variant-position:normal;font-variant-caps:normal;font-variant-numeric:normal;font-variant-alternates:normal;font-feature-settings:normal;text-indent:0;text-align:start;text-decoration:none;text-decoration-line:none;text-decoration-style:solid;text-decoration-color:#000000;text-transform:none;text-orientation:mixed;white-space:normal;shape-padding:0;isolation:auto;mix-blend-mode:normal;solid-color:#000000;solid-opacity:1;marker:none"
       d="M 3.9941406,0 C 2.7361406,0.015 1.8155,-0.03023438 1.0625,0.38476562 0.67349069,0.607066 0.37577269,0.96103608 0.22460938,1.3828125 0.05960938,1.8198125 0,2.343 0,3 v 10 c 0,0.658 0.05960938,1.179188 0.22460938,1.617188 0.164,0.439 0.46189062,0.789093 0.83789062,0.996093 C 1.8155,16.028281 2.7361406,15.985 3.9941406,16 h 8.0117184 c 1.258,-0.015 2.178641,0.03023 2.931641,-0.384766 0.389009,-0.2223 0.686728,-0.576271 0.837891,-0.998046 C 15.940391,14.179187 16,13.657 16,13 V 3 C 16,2.342 15.940391,1.8208125 15.775391,1.3828125 15.623955,0.96139606 15.326807,0.60799858 14.9375,0.38671875 14.1855,-0.02828125 13.263859,0.015 12.005859,0 H 3.9980469 Z M 4,1 H 8 V 15 H 4 c -1.259,-0.015 -2.0900781,-0.05972 -2.4550781,-0.261719 -0.184,-0.1 -0.2867657,-0.213656 -0.3847657,-0.472656 C 1.0631563,14.005625 1,13.592 1,13 V 3 C 1,2.408 1.0631563,1.994375 1.1601562,1.734375 1.2581563,1.474375 1.362875,1.3627187 1.546875,1.2617188 1.912875,1.0597188 2.74,1.015 4,1 Z m 8,3 h 1 v 1 h 1 v 1 h 1 v 3 l -1,1 H 13 L 12.5,9.5 12,10 h -1 v 1 l -1,1 H 9 v -1 h 1 V 9 7 h 1 v 2 h 1 V 7 h 1 v 2 h 1 V 6 H 13 V 5 H 12 V 6 H 11 V 5 h 1 z"
       sodipodi:nodetypes="cccssccccccsscccccccccccsscccccccccccccccccccccccccccccccccccccc" />
  </g>
  <path
     id="path991"
     style="fill:#808080;fill-opacity:1;stroke-width:8;stroke-linecap:round;stroke-linejoin:round"
     d="M 4.5 2 A 2.5 2.5 0 0 0 2 4.5 A 2.5 2.5 0 0 0 4.5 7 A 2.5 2.5 0 0 0 7 4.5 A 2.5 2.5 0 0 0 4.5 2 z M 3.4882812 3 A 0.5 0.5 0 0 1 3.5 3 A 0.5 0.5 0 0 1 4 3.5 A 0.5 0.5 0 0 1 3.5 4 A 0.5 0.5 0 0 1 3 3.5 A 0.5 0.5 0 0 1 3.4882812 3 z M 5.4882812 3 A 0.5 0.5 0 0 1 5.5 3 A 0.5 0.5 0 0 1 6 3.5 A 0.5 0.5 0 0 1 5.5 4 A 0.5 0.5 0 0 1 5 3.5 A 0.5 0.5 0 0 1 5.4882812 3 z M 3.0878906 5 L 5.9140625 5 A 1.5 1.5 0 0 1 4.5 6 A 1.5 1.5 0 0 1 3.0878906 5 z " />
  <path
     id="rect1024"
     style="fill:#808080;fill-opacity:1;stroke-width:8;stroke-linecap:round;stroke-linejoin:round"
     d="M 4.5,9 C 3,9 4,11 4.3730469,11.363281 4,11 2,10 2,11.5 2,13 4,12 4.375,11.625 4,12 3,14 4.5,14 6,14 5,12 4.6367188,11.626953 5,12 7,13 7,11.5 7,10 5,11 4.6386719,11.361328 5,11 6,9 4.5,9 Z"
     sodipodi:nodetypes="sccczczcs" />
</svg>

<svg version="1.1" viewBox="0 0 16 16" xmlns="http://www.w3.org/2000/svg">
 <g fill="gray">
  <path d="m3.9941 0c-1.258 0.015-2.1786-0.030234-2.9316 0.38477-0.38901 0.2223-0.68673 0.57627-0.83789 0.99805-0.165 0.437-0.22461 0.96019-0.22461 1.6172v10c0 0.658 0.059609 1.1792 0.22461 1.6172 0.164 0.439 0.46189 0.78909 0.83789 0.99609 0.753 0.415 1.6736 0.37172 2.9316 0.38672h8.0117c1.258-0.015 2.1786 0.03023 2.9316-0.38477 0.38901-0.2223 0.68673-0.57627 0.83789-0.99805 0.165-0.438 0.22461-0.96019 0.22461-1.6172v-10c0-0.658-0.059609-1.1792-0.22461-1.6172-0.15144-0.42142-0.44858-0.77481-0.83789-0.99609-0.752-0.415-1.6736-0.37172-2.9316-0.38672h-8.0078zm0.0058594 1h4v14h-4c-1.259-0.015-2.0901-0.05972-2.4551-0.26172-0.184-0.1-0.28677-0.21366-0.38477-0.47266-0.097-0.26-0.16016-0.67362-0.16016-1.2656v-10c0-0.592 0.063156-1.0056 0.16016-1.2656 0.098-0.26 0.20272-0.37166 0.38672-0.47266 0.366-0.202 1.1931-0.24672 2.4531-0.26172zm8 3h1v1h1v1h1v3l-1 1h-1l-0.5-0.5-0.5 0.5h-1v1l-1 1h-1v-1h1v-2-2h1v2h1v-2h1v2h1v-3h-1v-1h-1v1h-1v-1h1z" solid-color="#000000" style="font-feature-settings:normal;font-variant-alternates:normal;font-variant-caps:normal;font-variant-ligatures:normal;font-variant-numeric:normal;font-variant-position:normal;isolation:auto;mix-blend-mode:normal;shape-padding:0;text-decoration-color:#000000;text-decoration-line:none;text-decoration-style:solid;text-indent:0;text-orientation:mixed;text-transform:none;white-space:normal"/>
 </g>
 <path d="m4.5 2a2.5 2.5 0 0 0-2.5 2.5 2.5 2.5 0 0 0 2.5 2.5 2.5 2.5 0 0 0 2.5-2.5 2.5 2.5 0 0 0-2.5-2.5zm-1.0117 1a0.5 0.5 0 0 1 0.011719 0 0.5 0.5 0 0 1 0.5 0.5 0.5 0.5 0 0 1-0.5 0.5 0.5 0.5 0 0 1-0.5-0.5 0.5 0.5 0 0 1 0.48828-0.5zm2 0a0.5 0.5 0 0 1 0.011719 0 0.5 0.5 0 0 1 0.5 0.5 0.5 0.5 0 0 1-0.5 0.5 0.5 0.5 0 0 1-0.5-0.5 0.5 0.5 0 0 1 0.48828-0.5zm-2.4004 2h2.8262a1.5 1.5 0 0 1-1.4141 1 1.5 1.5 0 0 1-1.4121-1z" fill="#808080" stroke-linecap="round" stroke-linejoin="round" stroke-width="8"/>
 <path d="M 4.5,9 C 3,9 4,11 4.3730469,11.363281 4,11 2,10 2,11.5 2,13 4,12 4.375,11.625 4,12 3,14 4.5,14 6,14 5,12 4.6367188,11.626953 5,12 7,13 7,11.5 7,10 5,11 4.6386719,11.361328 5,11 6,9 4.5,9 Z" fill="#808080" stroke-linecap="round" stroke-linejoin="round" stroke-width="8"/>
</svg>
